newicons/nova_google_companion.svg

<?xml version="1.0" encoding="UTF-8"?><svg id="a" xmlns="http://www.w3.org/2000/svg" viewBox="0 0 48 48"><defs><style>.c{fill:none;stroke:#fff;stroke-linecap:round;stroke-linejoin:round;}</style></defs><path id="b" class="c" d="M30.418,21.803v-5.047M17.582,26.868v5.76h12.836v-5.76M33.076,24.465l-9.076-9.093-9.076,9.093M24,2.5v5.88M24,39.618v5.88M2.5,24h5.88M39.62,24h5.88M39.62,24c0,8.6267-6.9933,15.62-15.62,15.62s-15.62-6.9933-15.62-15.62,6.9933-15.62,15.62-15.62h0c8.6267,0,15.62,6.9933,15.62,15.62ZM45.5,24c0,11.8741-9.6259,21.5-21.5,21.5S2.5,35.8741,2.5,24,12.1259,2.5,24,2.5s21.5,9.6259,21.5,21.5Z"/></svg>

<svg xmlns="http://www.w3.org/2000/svg" xml:space="preserve" id="svg1" version="1.1" viewBox="0 0 48 48"><defs id="defs1"><style id="style1">.a{fill:none;stroke:#fff;stroke-linecap:round;stroke-linejoin:round}</style></defs><path id="path1-0" d="M30.418 21.803v-5.047M17.582 26.868v5.76h12.836v-5.76m2.658-2.403L24 15.372l-9.076 9.093M24 2.5v5.88m0 31.238v5.88M2.5 24h5.88m31.24 0h5.88m-5.88 0A15.62 15.62 0 0 1 24 39.62 15.62 15.62 0 0 1 8.38 24 15.62 15.62 0 0 1 24 8.38 15.62 15.62 0 0 1 39.62 24Zm5.88 0A21.5 21.5 0 0 1 24 45.5 21.5 21.5 0 0 1 2.5 24 21.5 21.5 0 0 1 24 2.5 21.5 21.5 0 0 1 45.5 24Z" style="fill:none;stroke:#fff;stroke-width:1;stroke-linecap:round;stroke-linejoin:round;stroke-opacity:1"/></svg>
